X:6
T:Sheep Under The Snow, The
M:3/4
L:1/8
R:Waltz/Aire
K:BDor
Z: d Wosika
Bc| d2 F2 FE| F2 A2 BA|F2 f3 f| fe fe fg|
a2 (3g/2a/2g/2 f fe|c3 A Bc|BA FE FA|B4 Bc|
de f2 df |ec A2 Bc|d2 e2 fg|a4 Bc|
de f2 df |ec Ad dc|BA FE FA|B4z2|
